src/images/technology-icons/javascript-icon.svg

<?xml version="1.0" encoding="UTF-8"?>
<svg width="280px" height="330px" viewBox="0 0 280 330" version="1.1" xmlns="http://www.w3.org/2000/svg" xmlns:xlink="http://www.w3.org/1999/xlink">
    <!-- Generator: Sketch 42 (36781) - http://www.bohemiancoding.com/sketch -->
    <title>javascript-icon</title>
    <desc>Created with Sketch.</desc>
    <defs></defs>
    <g id="Page-1" stroke="none" stroke-width="1" fill="none" fill-rule="evenodd">
        <g id="javascript-icon" fill="#36383A">
            <path d="M9,321 L241,321 L241,9 L9,9 L9,321 Z M0,6.00947008 C0,2.6905314 2.68028089,0 5.99443697,0 L244.005563,0 C247.316199,0 250,2.68051651 250,6.00947008 L250,323.99053 C250,327.309469 247.319719,330 244.005563,330 L5.99443697,330 C2.68380085,330 0,327.319483 0,323.99053 L0,6.00947008 Z M241,190 L241,270 L250,270 L250,190 L241,190 Z" id="Combined-Shape" fill-rule="nonzero"></path>
            <path d="M18,39 L78,39 L78,48 L18,48 L18,39 Z M27,57 L167,57 L167,66 L27,66 L27,57 Z M36,75 L126,75 L126,84 L36,84 L36,75 Z M36,93 L146,93 L146,102 L36,102 L36,93 Z M36,111 L106,111 L106,120 L36,120 L36,111 Z M27,129 L38,129 L38,138 L27,138 L27,129 Z M18,147 L29,147 L29,156 L18,156 L18,147 Z" id="Combined-Shape"></path>
            <path d="M9,261 L271,261 L271,199 L9,199 L9,261 Z M0,190 L280,190 L280,270 L0,270 L0,190 Z" id="Rectangle-10" fill-rule="nonzero"></path>
            <path d="M193.508,243.43 C194.124003,243.870002 195.157993,244.353997 196.61,244.882 C198.062007,245.410003 199.733991,245.674 201.626,245.674 C203.474009,245.674 204.947994,245.355003 206.048,244.717 C207.148006,244.078997 207.983997,243.100007 208.556,241.78 C209.128003,240.459993 209.501999,238.82101 209.678,236.863 C209.854001,234.90499 209.942,232.606013 209.942,229.966 L209.942,206.14 L219.05,206.14 L219.05,229.966 C219.05,233.530018 218.863002,236.774985 218.489,239.701 C218.114998,242.627015 217.323006,245.12399 216.113,247.192 C214.902994,249.26001 213.154011,250.865994 210.866,252.01 C208.577989,253.154006 205.498019,253.726 201.626,253.726 C197.66598,253.726 194.278014,252.75801 191.462,250.822 L193.508,243.43 Z M256.208,218.416 C255.899998,218.107998 255.339004,217.690003 254.525,217.162 C253.710996,216.633997 252.721006,216.117003 251.555,215.611 C250.388994,215.104997 249.124007,214.676002 247.76,214.324 C246.395993,213.971998 245.010007,213.796 243.602,213.796 C241.093987,213.796 239.224006,214.257995 237.992,215.182 C236.759994,216.106005 236.144,217.403992 236.144,219.076 C236.144,220.044005 236.374998,220.846997 236.837,221.485 C237.299002,222.123003 237.969996,222.683998 238.85,223.168 C239.730004,223.652002 240.840993,224.091998 242.183,224.488 C243.525007,224.884002 245.075991,225.301998 246.836,225.742 C249.124011,226.358003 251.202991,227.017996 253.073,227.722 C254.943009,228.426004 256.526994,229.305995 257.825,230.362 C259.123006,231.418005 260.123996,232.682993 260.828,234.157 C261.532004,235.631007 261.884,237.445989 261.884,239.602 C261.884,242.110013 261.411005,244.254991 260.465,246.037 C259.518995,247.819009 258.243008,249.259995 256.637,250.36 C255.030992,251.460005 253.18301,252.262997 251.093,252.769 C249.00299,253.275003 246.814011,253.528 244.526,253.528 C241.005982,253.528 237.530017,253.000005 234.098,251.944 C230.665983,250.887995 227.586014,249.39201 224.858,247.456 L228.884,239.602 C229.280002,239.998002 229.994995,240.514997 231.029,241.153 C232.063005,241.791003 233.283993,242.428997 234.692,243.067 C236.100007,243.705003 237.661991,244.243998 239.378,244.684 C241.094009,245.124002 242.853991,245.344 244.658,245.344 C249.674025,245.344 252.182,243.738016 252.182,240.526 C252.182,239.513995 251.896003,238.656004 251.324,237.952 C250.751997,237.247996 249.938005,236.632003 248.882,236.104 C247.825995,235.575997 246.550007,235.092002 245.054,234.652 C243.557993,234.211998 241.886009,233.728003 240.038,233.2 C237.793989,232.583997 235.847008,231.913004 234.197,231.187 C232.546992,230.460996 231.172006,229.603005 230.072,228.613 C228.971994,227.622995 228.147003,226.479006 227.597,225.181 C227.046997,223.882994 226.772,222.332009 226.772,220.528 C226.772,218.151988 227.211996,216.040009 228.092,214.192 C228.972004,212.343991 230.192992,210.804006 231.755,209.572 C233.317008,208.339994 235.13199,207.405003 237.2,206.767 C239.26801,206.128997 241.489988,205.81 243.866,205.81 C247.166017,205.81 250.201986,206.326995 252.974,207.361 C255.746014,208.395005 258.16599,209.615993 260.234,211.024 L256.208,218.416 Z" id="JS"></path>
        </g>
    </g>
</svg>

<svg width="280" height="330" viewBox="0 0 280 330" xmlns="http://www.w3.org/2000/svg"><title>javascript-icon</title><g fill="#36383A" fill-rule="evenodd"><path d="M9 321h232V9H9v312zM0 6.01C0 2.69 2.68 0 5.994 0h238.012C247.316 0 250 2.68 250 6.01v317.98c0 3.32-2.68 6.01-5.994 6.01H5.994A5.996 5.996 0 0 1 0 323.99V6.01zM241 190v80h9v-80h-9z" fill-rule="nonzero"/><path d="M18 39h60v9H18v-9zm9 18h140v9H27v-9zm9 18h90v9H36v-9zm0 18h110v9H36v-9zm0 18h70v9H36v-9zm-9 18h11v9H27v-9zm-9 18h11v9H18v-9z"/><path d="M9 261h262v-62H9v62zm-9-71h280v80H0v-80z" fill-rule="nonzero"/><path d="M193.508 243.43c.616.44 1.65.924 3.102 1.452 1.452.528 3.124.792 5.016.792 1.848 0 3.322-.319 4.422-.957 1.1-.638 1.936-1.617 2.508-2.937.572-1.32.946-2.959 1.122-4.917.176-1.958.264-4.257.264-6.897V206.14h9.108v23.826c0 3.564-.187 6.809-.561 9.735-.374 2.926-1.166 5.423-2.376 7.491-1.21 2.068-2.959 3.674-5.247 4.818-2.288 1.144-5.368 1.716-9.24 1.716-3.96 0-7.348-.968-10.164-2.904l2.046-7.392zm62.7-25.014c-.308-.308-.869-.726-1.683-1.254-.814-.528-1.804-1.045-2.97-1.551a25.58 25.58 0 0 0-3.795-1.287 16.574 16.574 0 0 0-4.158-.528c-2.508 0-4.378.462-5.61 1.386-1.232.924-1.848 2.222-1.848 3.894 0 .968.231 1.771.693 2.409.462.638 1.133 1.199 2.013 1.683.88.484 1.991.924 3.333 1.32s2.893.814 4.653 1.254c2.288.616 4.367 1.276 6.237 1.98s3.454 1.584 4.752 2.64a10.9 10.9 0 0 1 3.003 3.795c.704 1.474 1.056 3.289 1.056 5.445 0 2.508-.473 4.653-1.419 6.435-.946 1.782-2.222 3.223-3.828 4.323-1.606 1.1-3.454 1.903-5.544 2.409-2.09.506-4.279.759-6.567.759-3.52 0-6.996-.528-10.428-1.584-3.432-1.056-6.512-2.552-9.24-4.488l4.026-7.854c.396.396 1.111.913 2.145 1.551 1.034.638 2.255 1.276 3.663 1.914 1.408.638 2.97 1.177 4.686 1.617 1.716.44 3.476.66 5.28.66 5.016 0 7.524-1.606 7.524-4.818 0-1.012-.286-1.87-.858-2.574-.572-.704-1.386-1.32-2.442-1.848-1.056-.528-2.332-1.012-3.828-1.452-1.496-.44-3.168-.924-5.016-1.452-2.244-.616-4.191-1.287-5.841-2.013-1.65-.726-3.025-1.584-4.125-2.574-1.1-.99-1.925-2.134-2.475-3.432s-.825-2.849-.825-4.653c0-2.376.44-4.488 1.32-6.336.88-1.848 2.101-3.388 3.663-4.62 1.562-1.232 3.377-2.167 5.445-2.805 2.068-.638 4.29-.957 6.666-.957 3.3 0 6.336.517 9.108 1.551 2.772 1.034 5.192 2.255 7.26 3.663l-4.026 7.392z"/></g></svg>
